X:1
T:Title
%%score ( 1 2 ) 3
L:1/8
M:6/8
K:Bb
V:1 treble nm="Grand Piano, Piano"
V:2 treble 
V:3 bass nm="Grand Piano, Piano"
V:1
 z3 z2[Q:1/4=100] [B,D]/[CE]/ | [DF]>[_D=E][DG] [=DF]2 [DF]/[DF]/ |[M:5/8] [EG]>[E^F][EA] [EG]2 | %3
w: 1.~On~ a~|hill~ far~ a way~ stood~ an~|old~ rug ged~ cross,~|
[M:1/8] [=EG] |[M:3/4] A>G [DF][CE] [CF][CE] |[M:5/8] [B,D]-[B,D]- [B,D]3 |[M:1/8] [B,D]/[CE]/ | %7
w: the~|em blem~ of~ suf fering~ and~|shame;~ * *|and~ I~|
[M:3/4] [DF]>[_D=E] [DG] [=DF]2 [DF]/[DF]/ |[M:5/8] [EG]>[E^F][EA] [EG]2 |[M:1/8] [=EG] | %10
w: love~ that~ old~ cross~ where~ the~|dear est~ and~ best~|for~|
[M:3/4] [EA]>[EG] [EF][Ge] [Fd][Ec] |[M:5/8] [DB]-[DB]- [DB]3 |[M:1/8] [CA]/[DB]/ | %13
w: world~ of~ lost~ sin ners~ was~|slain.~ * *||
[M:3/4] [Ec]>[Ec] [Ec]c B[EA] |[M:5/8] B-[_DB-][EB-] [=DB]2 |[M:1/8] [FB]/[FA]/ | %16
w: |||
[M:3/4] [EG]>[EG] [EG][GB] [FA][EG] |[M:5/8] [DF]-[DF]- [DF]3 |[M:1/8] [DF]/[DB]/ | %19
w: |||
[M:3/4] [Fd]>[Fd] [Fd][Fd] [Ge][Fd] |[M:5/8] G-[EG-][EG-] [EG]2 |[M:1/8] [Ge]/[Ge]/ | %22
w: |||
[M:3/4] [Fd]>[Ec] [DB][EF] [EA][Ec] |[M:5/8] [DB]-[DB]- [DB]3 |] %24
w: ||
V:2
 x6 | x6 |[M:5/8] x5 |[M:1/8] x |[M:3/4] E2 z2 z2 |[M:5/8] x5 |[M:1/8] x |[M:3/4] x6 |[M:5/8] x5 | %9
[M:1/8] x |[M:3/4] x6 |[M:5/8] x5 |[M:1/8] x |[M:3/4] z2 z .E3 |[M:5/8] D z z z2 |[M:1/8] x | %16
[M:3/4] x6 |[M:5/8] x5 |[M:1/8] x |[M:3/4] x6 |[M:5/8] E z z z2 |[M:1/8] x |[M:3/4] x6 | %23
[M:5/8] x5 |] %24
V:3
 z3 z2 [B,,F,]/[B,,F,]/ | [B,,B,]>[B,,B,][B,,G,] [B,,B,]2 [B,,B,]/[B,,B,]/ | %2
[M:5/8] [E,B,]>[E,A,][E,C] [E,B,]2 |[M:1/8] [C,C] |[M:3/4] [F,C]>[F,A,] [F,B,][F,A,] [F,A,]F, | %5
[M:5/8] [B,,F,]-[B,,F,]- [B,,F,]3 |[M:1/8] [B,,F,]/[B,,F,]/ | %7
[M:3/4] [B,,B,]>[B,,B,] [B,,G,] [B,,B,]2 [B,,B,]/[B,,B,]/ |[M:5/8] [E,B,]>[E,A,][E,C] [E,B,]2 | %9
[M:1/8] [C,C] |[M:3/4] [F,C]>[F,B,] [F,A,][F,A,] [F,B,][F,A,] |[M:5/8] [B,,B,]-[B,,B,]- [B,,B,]3 | %12
[M:1/8] F,/F,/ |[M:3/4] [F,A,]>[F,A,] [F,A,] [F,A,]2 F, |[M:5/8] [B,,F,][B,,=E,][B,,G,] [B,,F,]2 | %15
[M:1/8] [D,B,]/[D,B,]/ |[M:3/4] [E,B,]>[E,B,] [E,B,][E,B,] [E,B,][E,B,] | %17
[M:5/8] [B,,B,]-[B,,B,]- [B,,B,]3 |[M:1/8] [B,,B,]/[B,,B,]/ | %19
[M:3/4] [B,,B,]>[B,,B,] [B,,B,] [B,,B,]2 [B,,B,] |[M:5/8] [E,B,][E,B,][E,B,] [E,B,]2 | %21
[M:1/8] [E,B,]/[E,B,]/ |[M:3/4] [F,B,]>[F,A,] [F,B,][F,A,] [F,C]F, | %23
[M:5/8] [B,,F,]-[B,,F,]- [B,,F,]3 |] %24

